X: 48
T: A li lang
L: 1/8
M: 3/4
K: G
D2>E2 D E [I:setbarnb 1]| 
G2>A2 G A | 
B2A B G E | 
D2>E2 D E | 
G2>A2 G A | 
B A G E D E | 
G3A/ A/G2 | 
G4z2 | 
d4d2 | 
d2B2A A | 
B2A B G E | 
D2>E2 D z | 
G2>A2 G A | 
B A G E D E | 
G2>A2G2 | 
G4z2 |]

@@@ Tune index: 8716
